www/assets/icons/thumb_down_alt.svg

<svg xmlns="http://www.w3.org/2000/svg" width="24" height="24" viewBox="0 0 24 24" fill='currentColor'><path d="M22 3h-2c-.55 0-1 .45-1 1v9c0 .55.45 1 1 1h2zM2.17 10.12c-.11.25-.17.52-.17.8V12c0 1.1.9 2 2 2h5.5l-.92 4.65c-.05.22-.02.46.08.66.23.45.52.86.88 1.22L10 21l6.41-6.41c.38-.38.59-.89.59-1.42V5.34C17 4.05 15.95 3 14.66 3h-8.1c-.71 0-1.36.37-1.72.97z"/></svg>

<svg width="24" height="24" viewBox="0 0 24 24" xmlns="http://www.w3.org/2000/svg" fill='currentColor'><path d="M22 3H20C19.45 3 19 3.45 19 4V13C19 13.55 19.45 14 20 14H22V3ZM2.17 10.12C2.06 10.37 2 10.64 2 10.92V12C2 13.1 2.9 14 4 14H9.5L8.58 18.65C8.53 18.87 8.56 19.11 8.66 19.31C8.89 19.76 9.18 20.17 9.54 20.53L10 21L16.41 14.59C16.79 14.21 17 13.7 17 13.17V5.34C17 4.05 15.95 3 14.66 3H6.56C5.85 3 5.2 3.37 4.84 3.97L2.17 10.12Z"/></svg>
